X:1
T:Title
%%score { ( 1 3 ) | ( 2 4 ) }
L:1/8
M:6/8
K:Ab
V:1 treble nm="Grand Piano"
V:3 treble 
V:2 bass 
V:4 bass 
V:1
 z3 z2[Q:1/4=119] [CE] | [Ec]2 [Ec] [DB]2 [CA] | [Ec]2 [Ec] [EB]2 [EA] | F2 B A2 F | %4
 [CE]3- [CE]2 [CE] | [DG]2 [DG] G2 E | [EA]2 [EA] [EA]2 B | c2 c d2 c | B3- B2 E | %9
 [Ec]2 [Ec] [DB]2 [CA] | [Ec]2 [Ec] [EB]2 [EA] | F2 B A2 F | [CE]3- [CE]2 E | [EA]2 [EA] B2 B | %14
 c2 d e3 |[M:1/8] [Fd] |[M:3/4] c2 c B2 B |[M:5/8] [CA]-[CA]- [CA]3 |[M:1/8] [CE] | %19
[M:3/4] [Ec]2 [Ec] [DB]2 [CA] | [Ec]6 | [FA]2 A A,2- [A,DA] | [CE]6 | [DG]2 [DG] G2 E | %24
 [EA]2 [EA] B2 B | c2 c d2 c | z2 e/e/e eB | [Ec]2 [Ec] [DB]2 [CA] | [Ec]3 [Ec]2 [EB] | %29
 [FA]2 A A,2- [A,DA] | [CE]4- [CE][A,CE] | [A,EA]2 [A,EA] B2 B |[M:7/8] c2 d e3 [Fd] | %33
[M:3/4] c2 c B2 B |[M:5/8] [CA]-[CA]- [CA]3 |] %35
V:2
 z3 z2 [A,,A,] | [A,,A,]2 [A,,A,] [A,,A,]2 [A,,A,] | [A,,A,]2 [A,,A,] [B,,G,]2 [C,A,] | %3
 [D,A,D]2 [D,F,D] [D,F,D]2 [D,A,D] | [A,,A,]3- [A,,A,]2 [A,,A,] | %5
 [B,,E,]2 [B,,E,] [E,B,D]2 [D,B,] | [C,A,]2 [C,A,] [C,A,]2 [E,G,E] | [A,E]2 [A,E] [G,B,E]2 [A,E] | %8
 [E,G,E]3- [E,G,E]2 [E,G,] | [A,,A,]2 [A,,A,] [A,,A,]2 [A,,A,] | [A,,A,]2 [A,,A,] [B,,G,]2 [C,A,] | %11
 [D,A,D]2 [D,F,D] [D,F,D]2 [D,A,D] | [A,,A,]3- [A,,A,]2 [A,,A,] | [C,A,]2 [C,A,] [E,G,E]2 [E,G,E] | %14
 [A,E]2 [A,B,E] [A,CE]3 |[M:1/8] [D,A,] |[M:3/4] [E,A,E]2 [E,A,E] [E,G,D]2 [E,G,D] | %17
[M:5/8] [A,,A,]-[A,,A,]- [A,,A,]3 |[M:1/8] [A,,A,] |[M:3/4] [A,,A,]3 [A,,E,]3 | %20
 [A,,A,]2 A,, A,,2 [C,A,] | z2 F D,2 F, | A,2 A,, A,,2 A,, | [B,,E,]2 [B,,E,] [E,B,D]2 [D,B,] | %24
 [C,A,]2 [C,A,] [E,G,E]2 [E,G,E] | [A,E]2 [A,E] [G,B,E]2 [A,E] | [E,G,E]4- [E,G,E][G,B,E] | %27
 [A,,A,]2 [A,,A,] [A,,E,]2 [A,,E,] | [A,,A,]3 [A,,A,]2 [C,A,] | z2 F D,2 F, | A,2 A, A,2 A,, | %31
 C,2 C, [E,G,E]2 [E,G,E] |[M:7/8] [A,E]2 [A,B,E] [A,CE]3 [D,A,] | %33
[M:3/4] [E,A,E]2 [E,A,E] [E,G,D]2 [E,D] |[M:5/8] [A,,E,]-[A,,E,]- [A,,E,]3 |] %35
V:3
 x6 | x6 | x6 | x6 | x6 | x6 | x6 | x6 | x6 | x6 | x6 | x6 | x6 | x6 | x6 |[M:1/8] x |[M:3/4] x6 | %17
[M:5/8] x5 |[M:1/8] x |[M:3/4] x6 | z2 A, A,2 [EB] | z2 z .[DF]3 | z2 A, A,2 [A,CE] | x6 | x6 | %25
 x6 | B6 | x6 | x6 | z2 z .[DF]3 | x6 | x6 |[M:7/8] x7 |[M:3/4] x6 |[M:5/8] x5 |] %35
V:4
 x6 | x6 | x6 | x6 | x6 | x6 | x6 | x6 | x6 | x6 | x6 | x6 | x6 | x6 | x6 |[M:1/8] x |[M:3/4] x6 | %17
[M:5/8] x5 |[M:1/8] x |[M:3/4] x6 | x6 | [D,D]4 z2 | x6 | x6 | x6 | x6 | x6 | x6 | x6 | [D,D]4 z2 | %30
 x6 | x6 |[M:7/8] x7 |[M:3/4] x6 |[M:5/8] x5 |] %35

